X: 17
T:Young Jamy. HA.018
T:Young Jemmy,aka. HA.018
M:C
L:1/8
Q:180
S:Henry Atkinson's original MS,Hartburn,N'umberland,1694.
O:England
A:Hartburn,Northumberland
N:see Playford eds 7(1686) and all subsequent, but not identical..
H:1/8
Z:vmp.Chris Partington.Jan.2004
K:F
"No Key Sig in MS"\
A2|F2(ED) (FG) A2|d4f4|(ef)(ed) (cd)(cA)|G4A2A2|!
F2(ED) (FG) A2|d4f4|a2 (gf) (ef)(ed)|d4D2||!
A2|"cr"d3e (fe)(fc)|A2c2c2 (BA)|d2 (ef) (gf)(gf)|f4a4|!
"cr"A3G (AB)c2|"cr"c3BA2(Bc)|d2 (ef) (gf)(ed)|d4D2|]
W:cr=crotchet in MS
